resources/svg/minor-print.svg

<svg xmlns="http://www.w3.org/2000/svg" viewBox="0 0 20 20" fill="currentColor"><path fill-rule="evenodd" d="M14 11h2v-2h-2v2zm-7-4h6v-3h-6v3zm0 9h6v-2h-6v2zm8-9v-3.5a1.5 1.5 0 0 0-1.5-1.5h-7a1.5 1.5 0 0 0-1.5 1.5v3.5h-1.5a1.5 1.5 0 0 0-1.5 1.5v6a1.5 1.5 0 0 0 1.5 1.5h1.5v.5a1.5 1.5 0 0 0 1.5 1.5h7a1.5 1.5 0 0 0 1.5-1.5v-.5h1.5a1.5 1.5 0 0 0 1.5-1.5v-6a1.5 1.5 0 0 0-1.5-1.5h-1.5z"/></svg>

<svg xmlns="http://www.w3.org/2000/svg" viewBox="0 0 20 20" fill="currentColor"><path fill-rule="evenodd" d="M14 11h2V9h-2v2zM7 7h6V4H7v3zm0 9h6v-2H7v2zm8-9V3.5A1.5 1.5 0 0 0 13.5 2h-7A1.5 1.5 0 0 0 5 3.5V7H3.5A1.5 1.5 0 0 0 2 8.5v6A1.5 1.5 0 0 0 3.5 16H5v.5A1.5 1.5 0 0 0 6.5 18h7a1.5 1.5 0 0 0 1.5-1.5V16h1.5a1.5 1.5 0 0 0 1.5-1.5v-6A1.5 1.5 0 0 0 16.5 7H15z"/></svg>
